X:1
T:Title
L:1/8
M:6/8
K:Eb
V:1 treble nm="Grand Piano"
V:1
 z3 z2[Q:1/4=140] G | G2 G F2 =E | F3 D2 E | F2 F E2 D | E3- E2 C | E2 E D2 C | D3 =B,2 C | %7
 D2 D C2 =B, | C3- C2 c | c2 c c2 c | e3 c3- | c6- | c3- c2 c | c2 c B2 A | A6- | A6- | A3- A2 =B | %17
 =B2 B B2 B | d3 =B3- | B6- | B3- B2 A | G2 F E2 D | C6- | C6- | C6 |] %25

